packages/design-system/site/assets/images/landing/logo-lightning.svg

<?xml version="1.0" encoding="UTF-8" standalone="no"?>
<svg width="120px" height="158px" viewBox="0 0 120 158" version="1.1" xmlns="http://www.w3.org/2000/svg" xmlns:xlink="http://www.w3.org/1999/xlink">
    <!-- Generator: Sketch 40.1 (33804) - http://www.bohemiancoding.com/sketch -->
    <title>logo-lightning-d</title>
    <desc>Created with Sketch.</desc>
    <defs></defs>
    <g id="home-v1.5-DF16" stroke="none" stroke-width="1" fill="none" fill-rule="evenodd">
        <g id="logo-lightning-d" fill="#FEFEFE">
            <g id="Lightning-Logo-Copy">
                <path d="M25.3995667,130.946172 C9.49573538,119.531627 0.000592409719,100.928854 0.000592409719,81.1795744 C0.000592409719,55.9239313 14.9636771,33.6554632 38.1233426,24.4497194 C39.3259343,23.9721082 40.548668,23.5305886 41.7903588,23.1311758 L42.4230524,25.1547071 C41.2251999,25.5396833 40.0451197,25.9655632 38.8839967,26.4275347 C16.532378,35.312064 2.0906139,56.8033614 2.0906139,81.1795744 C2.0906139,100.240709 11.2551922,118.197444 26.6057129,129.212576 L25.3995667,130.946172 Z" id="Fill-2" stroke="#FFFFFF" stroke-width="1.2"></path>
                <path d="M59.9769817,142.078241 C57.2850719,142.078241 54.5907925,141.897783 51.9676023,141.539274 L52.2460349,139.437544 C54.7756244,139.781617 57.3774878,139.956059 59.9769817,139.956059 C91.8948325,139.956059 117.86489,113.588797 117.86489,81.179815 C117.86489,74.3067864 116.704952,67.5709056 114.42062,61.1598485 L116.383865,60.435612 C118.754689,67.081264 119.954911,74.060161 119.954911,81.179815 C119.954911,114.760569 93.0488466,142.078241 59.9769817,142.078241" id="Fill-4" stroke="#FFFFFF" stroke-width="1.2"></path>
                <polygon id="Fill-1" points="62.4895098 0 38.3417048 62.0617756 63.4219627 62.0665878 26.0800085 158.08086 104.766237 54.213073 76.6196664 54.2287126 106.660763 0"></polygon>
            </g>
        </g>
    </g>
</svg>

<svg width="120" height="158" viewBox="0 0 120 158" xmlns="http://www.w3.org/2000/svg"><g fill="#FEFEFE" fill-rule="evenodd"><path d="M25.4 130.946C9.496 119.532 0 100.93 0 81.18c0-25.256 14.964-47.525 38.123-56.73 1.203-.478 2.426-.92 3.667-1.32l.633 2.025c-1.198.385-2.378.81-3.54 1.273C16.534 35.312 2.092 56.803 2.092 81.18c0 19.06 9.165 37.017 24.516 48.033l-1.206 1.733zM59.977 142.078c-2.692 0-5.386-.18-8.01-.54l.28-2.1c2.53.344 5.13.518 7.73.518 31.918 0 57.888-26.367 57.888-58.776 0-6.873-1.16-13.61-3.444-20.02l1.964-.724c2.37 6.645 3.57 13.624 3.57 20.744 0 33.58-26.905 60.898-59.977 60.898" stroke="#FFF" stroke-width="1.2"/><path d="M62.49 0L38.342 62.062l25.08.005L26.08 158.08l78.686-103.867-28.146.016L106.66 0"/></g></svg>
